img/logout.svg

<svg fill="#ffffff" height="800" viewBox="0 0 24 24" width="800" xmlns="http://www.w3.org/2000/svg">
    <g>
        <path d="m22 6.62219v10.62281c0 1.1129-.7143 2.2258-1.8367 2.6304l-5.1021 1.9223c-.3061.1011-.6122.2023-1.0204.2023-.5102 0-1.1224-.2023-1.6326-.5058-.2041-.2024-.5102-.4047-.6123-.6071h-3.87753c-1.53061 0-2.85715-1.214-2.85715-2.8327v-1.0117c0-.4047.30613-.8094.81633-.8094.51021 0 .81633.3035.81633.8094v1.0117c0 .7082.61224 1.214 1.22449 1.214h3.36733v-14.56843h-3.36733c-.71429 0-1.22449.50585-1.22449 1.21404v1.01169c0 .40468-.30612.80936-.81633.80936-.5102 0-.81633-.40468-.81633-.80936v-1.01169c0-1.51755 1.2245-2.83276 2.85715-2.83276h3.87753c.2041-.20234.4082-.40468.6123-.60702.8163-.50585 1.7347-.60702 2.653-.30351l5.1021 1.92223c1.0204.30351 1.8367 1.41638 1.8367 2.52924z"/>
        <path d="m4.85714 14.8169c-.20408 0-.40816-.1011-.5102-.2023l-2.04082-2.0234c-.10204-.1012-.10204-.2023-.20408-.2023 0-.1012-.10204-.2024-.10204-.3035 0-.1012 0-.2024.10204-.3035 0-.1012.10204-.2024.20408-.2024l2.04082-2.02338c.30612-.30351.81633-.30351 1.12245 0s.30612.80938 0 1.11288l-.71429.7082h4.18368c.40816 0 .81632.3035.81632.8093 0 .5059-.40816.6071-.81632.6071h-4.28572l.71429.7081c.30612.3035.30612.8094 0 1.1129-.10204.1012-.30613.2023-.51021.2023z"/>
    </g>
</svg>

<?xml version="1.0" encoding="UTF-8" standalone="no"?>
<svg width="100%" height="100%" viewBox="0 0 800 800" version="1.1" xmlns="http://www.w3.org/2000/svg"
     style="fill-rule:evenodd;clip-rule:evenodd;stroke-linejoin:round;stroke-miterlimit:2;">
    <g transform="matrix(25,0,0,25,100,100)">
        <path fill="black"
              d="M22,6.622L22,17.245C22,18.358 21.286,19.471 20.163,19.875L15.061,21.798C14.755,21.899 14.449,22 14.041,22C13.531,22 12.918,21.798 12.408,21.494C12.204,21.292 11.898,21.09 11.796,20.887L7.918,20.887C6.388,20.887 5.061,19.673 5.061,18.054L5.061,17.043C5.061,16.638 5.367,16.233 5.878,16.233C6.388,16.233 6.694,16.537 6.694,17.043L6.694,18.054C6.694,18.763 7.306,19.268 7.918,19.268L11.286,19.268L11.286,4.7L7.918,4.7C7.204,4.7 6.694,5.206 6.694,5.914L6.694,6.926C6.694,7.33 6.388,7.735 5.878,7.735C5.367,7.735 5.061,7.33 5.061,6.926L5.061,5.914C5.061,4.396 6.286,3.081 7.918,3.081L11.796,3.081L12.408,2.474C13.224,1.968 14.143,1.867 15.061,2.171L20.163,4.093C21.184,4.396 22,5.509 22,6.622ZM4.857,14.817C4.653,14.817 4.449,14.716 4.347,14.615C4.347,14.615 2,12.928 2,12.085C2,11.242 4.347,9.556 4.347,9.556C4.653,9.253 5.163,9.253 5.469,9.556C5.776,9.86 5.776,10.365 5.469,10.669L4.755,11.377L8.939,11.377C9.347,11.377 9.755,11.681 9.755,12.187C9.755,12.692 9.347,12.794 8.939,12.794L4.653,12.794L5.367,13.502C5.673,13.805 5.673,14.311 5.367,14.615C5.265,14.716 5.061,14.817 4.857,14.817Z"/>
    </g>
</svg>
